src/assets/filled/RecordCircle.svg

<svg width="24" height="24" viewBox="0 0 24 24"  xmlns="http://www.w3.org/2000/svg">
<path d="M11.97 2C6.44997 2 1.96997 6.48 1.96997 12C1.96997 17.52 6.44997 22 11.97 22C17.49 22 21.97 17.52 21.97 12C21.97 6.48 17.5 2 11.97 2ZM12 16.23C9.65997 16.23 7.76997 14.34 7.76997 12C7.76997 9.66 9.65997 7.77 12 7.77C14.34 7.77 16.23 9.66 16.23 12C16.23 14.34 14.34 16.23 12 16.23Z" />
</svg>

<?xml version="1.0" encoding="UTF-8"?>
<svg width="24" height="24" viewBox="0 0 24 24" xmlns="http://www.w3.org/2000/svg">
 <path d="m11.97 2c-5.52 0-10 4.48-10 10s4.48 10 10 10c5.52 0 10-4.48 10-10s-4.47-10-10-10zm0.03 14.23c-2.34 0-4.23-1.89-4.23-4.23s1.89-4.23 4.23-4.23c2.34 0 4.23 1.89 4.23 4.23s-1.89 4.23-4.23 4.23z"/>
</svg>
